img/svgicons/шиповник.svg

<svg width="59" height="54" viewBox="0 0 59 54" fill="none" xmlns="http://www.w3.org/2000/svg">
<g clip-path="url(#clip0_43_25)">
<path d="M2.29444 52.3272C2.09777 52.3718 1.90111 52.4164 1.70444 52.461C1.55148 52.461 1.42037 52.4833 1.2674 52.4833C1.2237 52.4387 1.18 52.4164 1.11444 52.4164C1.24555 52.1264 1.35481 51.8365 1.48592 51.5465C1.77 51.0335 2.03222 50.4982 2.31629 49.9852C2.36 49.9183 2.38185 49.8513 2.38185 49.7844C2.53481 49.6729 2.66592 49.5614 2.81889 49.4722C4.41407 49.8737 6.00926 50.2751 7.60444 50.6766C7.69185 51.6357 7.7574 52.5948 7.84481 53.5539C7.7137 53.6878 7.58259 53.8439 7.42963 53.9777C6.66481 53.3309 5.9437 52.4833 4.8074 53.3978C4.72 53.4647 4.26111 53.2417 4.19555 53.0855C3.84592 52.0372 3.21222 51.8365 2.29444 52.3272Z" fill="white"/>
<path d="M1.70444 47.1078C1.68259 47.0186 1.63889 46.9517 1.61704 46.8625C1.57333 46.7955 1.52963 46.7286 1.48593 46.6394C1.48593 46.5725 1.46407 46.4833 1.42037 46.4387C0.93963 44.5651 0.480741 42.6915 0 40.8178C0.0437037 40.7955 0.0874074 40.7509 0.109259 40.7063C0.131111 39.4572 0.131111 38.2305 0.152963 36.9814C0.152963 36.7138 0.131111 36.4238 0.131111 36.1561C0.458889 35.0632 0.786667 33.948 1.11444 32.855C1.15815 32.7658 1.20185 32.6766 1.26741 32.5874C1.31111 32.5204 1.37667 32.4535 1.42037 32.3866C1.68259 31.9405 1.94481 31.4944 2.20704 31.0706C3.05926 30.3792 3.91148 29.6877 4.74185 28.974C4.82926 28.9294 4.89481 28.8625 4.98222 28.8178C5.04778 28.8178 5.11333 28.7955 5.17889 28.7509C5.2663 28.7063 5.3537 28.6617 5.41926 28.5948C5.70333 28.5056 5.98741 28.4164 6.24963 28.3271C6.49 28.2825 6.73037 28.2156 6.97074 28.171C7.45148 28.1487 7.95407 28.1264 8.43481 28.0818C8.60963 27.948 8.76259 27.8141 8.93741 27.6803C9.15593 27.2342 9.35259 26.7881 9.57111 26.3643C9.68037 26.1413 9.78963 25.9182 9.87704 25.7175C10.0519 25.4721 10.2485 25.2714 10.4015 25.0037C12.8489 20.8773 16.083 17.5093 20.0381 14.8773C22.3763 13.316 24.8237 11.9331 27.5552 11.1524C27.883 11.0186 28.2107 10.8848 28.5385 10.7509C28.7352 9.56877 28.9537 8.36431 29.1504 7.18216C29.2596 6.84758 29.3689 6.51301 29.4563 6.17844C30.3959 4.26022 31.8381 2.7881 33.6081 1.62825C33.7393 1.53903 33.8704 1.47212 34.0233 1.3829C34.0889 1.3829 34.1544 1.36059 34.22 1.31599C34.4385 1.20446 34.6789 1.07063 34.8974 0.959108C35.4218 0.758364 35.9244 0.557621 36.4489 0.356877C37.17 0.245353 37.8693 0.111524 38.5904 0C38.7215 0.0892193 38.8744 0.178439 39.0056 0.289963C39.0274 0.356877 39.0711 0.446097 39.093 0.513011C39.1585 0.60223 39.2022 0.669145 39.2678 0.758364C40.0107 3.72491 40.6226 6.66915 39.4426 9.6803C39.4207 9.72491 39.6393 9.92565 39.7267 9.92565C40.3604 9.76952 40.9722 9.59108 41.6059 9.41264C42.633 9.36803 43.6819 9.32342 44.7089 9.27881C46.9815 9.56877 48.9044 10.7286 50.8056 11.9108C51.1115 12.1338 51.4174 12.3569 51.7015 12.5799C51.8544 12.7138 52.0074 12.8476 52.1604 12.9814C52.1167 13.4944 52.2478 14.1636 51.9856 14.4981C50.7618 16.1264 49.407 17.6877 48.0959 19.2491C47.8556 19.5167 47.5933 19.7621 47.3311 20.0074C47.6589 20.0967 47.9867 20.2305 48.3144 20.2751C50.8274 20.632 52.8815 21.8141 54.6733 23.6208C56.203 25.1822 57.1207 27.0781 57.9511 29.0632C57.9948 29.197 58.0385 29.3532 58.0822 29.487C58.3444 30.5353 58.6067 31.5613 58.8689 32.6097C58.8907 32.7435 58.9126 32.8996 58.9344 33.0335C59.0437 33.9926 58.563 34.4833 57.6889 34.6617C56.0937 34.9963 54.5204 35.3309 52.9252 35.6654C52.1385 35.6431 51.3737 35.6431 50.587 35.6208C47.8556 35.2639 45.3426 34.3717 43.1793 32.5651C42.8515 32.2528 42.5237 31.9182 42.1959 31.6059L42.1522 31.539C41.4093 30.3346 40.6663 29.1301 40.0326 28.1041C39.4863 29.487 38.8963 31.0037 38.3063 32.5427C38.2407 32.632 38.197 32.6989 38.1315 32.7881C36.6674 34.3494 35.1815 35.8885 33.7174 37.4498C33.5863 37.4498 33.477 37.4498 33.3459 37.4498C32.8433 36.9814 32.2315 36.5799 31.86 36.0223C30.7674 34.3941 29.7622 32.6766 28.7352 31.0037C28.7133 30.9368 28.7133 30.8476 28.6915 30.7807C28.6478 30.6691 28.6041 30.5799 28.5385 30.4684C28.167 28.7509 27.9267 27.0335 28.32 25.2937C28.3419 25.1599 28.32 25.026 28.32 24.8922C28.1889 24.9368 28.0359 24.9814 27.9267 25.0483C25.96 26.3197 23.7748 26.9665 21.5022 27.4572C20.4096 26.9665 20.6719 25.8736 20.4752 24.9814C20.5189 23.4647 20.5626 21.948 20.6281 20.4312C20.7811 19.6729 20.9559 18.8922 21.1089 18.1338C21.4804 17.5316 21.83 16.9294 22.2015 16.3271C22.2889 16.1933 22.3763 16.0595 22.4637 15.9033C22.4856 15.8587 22.5074 15.8141 22.5293 15.7472C22.4856 15.7695 22.4419 15.7918 22.3981 15.8141C22.267 15.9033 22.1359 15.9703 21.983 16.0595C21.5459 16.3717 21.1089 16.6617 20.65 16.974C20.1693 17.3086 19.7104 17.6431 19.2296 17.9554C18.5741 18.3569 18.29 18.8699 18.443 19.6952C18.727 21.0781 18.9456 22.5056 19.1859 23.8885C19.8196 25.316 20.4533 26.7435 21.0652 28.171C21.3274 28.7732 21.5241 29.4424 22.42 29.2416C24.5833 28.7286 26.2878 29.6431 27.7956 31.0706C29.1504 32.6766 29.8715 34.6171 30.4615 36.6245C30.4833 36.8476 30.5052 37.0706 30.527 37.2937C30.5707 37.5167 30.6363 37.7621 30.68 37.9851C30.8548 40.461 30.3959 42.803 29.347 45.0335C27.9704 46.2379 26.2004 46.4387 24.5615 46.9517C20.803 45.0558 18.2244 42.1338 17.0663 37.9628C17.0881 37.8959 17.11 37.829 17.1319 37.7844C17.2848 36.1338 17.4378 34.4833 17.5689 32.8104C18.137 32.119 18.6833 31.3829 19.2952 30.7138C19.6011 30.4015 19.8633 30.2007 19.5574 29.71C17.9404 27.1004 16.957 24.2454 16.52 21.1896C16.4107 20.4981 16.2141 20.6766 15.9081 21.0112C13.9633 23.0409 12.4119 25.3829 11.1007 27.881C11.0352 28.0149 11.21 28.5056 11.363 28.5502C13.9633 29.4201 15.4056 31.316 16.1048 33.948C16.1485 34.0595 16.1922 34.1487 16.2359 34.2602C16.2141 34.3048 16.2141 34.3494 16.2578 34.3941C16.2796 35.5762 16.2796 36.7807 16.3015 37.9628C15.7989 41.6208 14.2693 44.7658 11.8874 47.5093C10.7293 48.3346 9.57111 49.1822 8.41296 50.0074C7.97593 49.9851 7.53889 50.0297 7.1237 49.9405C6.03111 49.6952 4.93852 49.3383 3.84593 49.1375C3.08111 49.0037 2.51296 48.6468 2.11963 47.9777C2.09778 47.9108 2.05407 47.8216 2.03222 47.7546C1.98852 47.6877 1.92296 47.5985 1.87926 47.5316C1.87926 47.4647 1.85741 47.3978 1.8137 47.3309C1.8137 47.2416 1.74815 47.1747 1.70444 47.1078ZM34.22 13.1599H34.1981C34.3511 13.026 34.5041 12.8699 34.657 12.7361C35.9026 12.5799 36.143 12.3346 36.1867 11.1747C36.8859 11.2639 36.8859 10.7955 36.8641 10.2825C37.6726 10.0595 37.8256 9.45725 37.7381 8.69888H37.7163C38.6341 8.27509 38.0004 7.44981 38.1533 6.82528C38.0222 5.57621 37.8693 4.32714 37.7381 3.07807C37.6507 2.2974 37.3011 2.23048 36.6237 2.47584C32.0348 4.12639 30.1556 7.51673 31.1607 12.4238C31.4667 13.8736 31.6196 14.0074 33.0619 13.8067C33.4333 13.7621 33.9578 14.0297 33.9359 13.316L33.9578 13.3606C34.067 13.316 34.1544 13.2268 34.22 13.1599ZM39.7704 12.1338C39.5519 12.29 39.3333 12.4461 39.1367 12.6022L39.1148 12.5353L39.1367 12.6022C38.5685 12.4684 38.35 12.7584 38.2626 13.2714V13.2491C38.197 13.316 38.1096 13.4052 38.0441 13.4721L38.0659 13.5167C37.017 13.316 37.3011 14.2305 37.1044 14.7435C36.5581 14.7212 36.427 15.0558 36.4926 15.5465C36.4926 15.5911 36.4926 15.6357 36.4489 15.658C35.9244 15.6134 35.553 15.7695 35.5748 16.4164C35.5967 16.9071 35.4874 17.487 36.2741 17.4201C36.9733 17.8216 37.6507 18.2454 38.3719 18.5799C41.2344 19.9405 44.0315 19.9851 46.5663 17.8662C47.7026 16.9071 48.5985 15.658 49.6037 14.5428C50.0407 14.052 49.8878 13.7398 49.3852 13.4052C47.1344 11.9331 44.7744 10.8625 42.0211 11.197C41.6278 11.3309 41.2126 11.487 40.8193 11.6208C40.7756 11.6654 40.7318 11.6654 40.6881 11.6654C40.3604 11.8216 40.0544 11.9777 39.7704 12.1338C39.7704 12.1338 39.7485 12.1338 39.7704 12.1338ZM37.323 30.8253C37.4759 30.6691 37.607 30.5353 37.76 30.3792C37.8474 30 37.9785 29.5985 38.0004 29.2193C38.0222 27.9703 37.9785 26.7212 37.9567 25.4944L37.9785 25.5167C37.9348 25.4275 37.8911 25.3606 37.8256 25.2714C37.3667 23.3532 36.3833 21.7249 35.1815 20.2082C34.7881 19.7175 34.4385 19.6283 34.067 20.119C32.9963 21.5019 31.7507 22.7955 30.9422 24.3346C30.3959 25.4052 30.243 26.8327 30.3085 28.0818C30.4396 30.803 31.9256 32.9219 33.63 34.9294C33.7611 35.0409 33.9578 35.2416 33.9796 35.2193C34.5915 34.6394 35.5311 34.3048 35.4874 33.2119L35.5093 33.1896C35.6622 32.9888 35.8152 32.7658 35.99 32.5651H35.9681C36.6674 32.3866 36.8859 31.8959 36.8422 31.2268H36.8204C36.9952 31.0929 37.1481 30.9591 37.323 30.8253ZM47.8337 22.171C47.047 22.1041 46.2604 22.0372 45.4956 21.948C45.5174 21.9926 45.5393 22.0595 45.583 22.1041C45.6048 22.1264 45.6485 22.1264 45.6922 22.1264C44.6652 22.3494 43.6163 22.5056 42.6111 22.7955C41.5185 23.1078 41.1033 23.777 41.3219 24.8922C41.8244 27.4349 42.917 29.6654 44.993 31.2714C48.4237 33.9257 52.2478 33.9257 56.2248 33.0112C56.8367 32.8773 56.8367 32.4758 56.7274 32.0074C55.5037 27.0781 53.1218 23.2416 47.8337 22.171ZM22.4637 22.7286C22.4637 23.2193 22.4856 23.6877 22.4637 24.1784C22.42 24.9814 22.7915 25.2268 23.447 24.9145C24.9111 24.2007 26.4626 23.5985 27.7737 22.6617C29.1722 21.658 30.1774 20.2082 30.6363 18.4461C31.2263 16.1041 29.5 14.3197 27.2493 14.9888C26.4844 15.2119 25.7196 15.6803 25.1078 16.2156C23.1411 17.9108 22.3326 20.1413 22.4637 22.7286Z" fill="white"/>
<path d="M17.1974 37.7844C17.11 36.6469 17.0226 35.487 16.9352 34.3495C17.1755 33.8365 17.4159 33.3235 17.6344 32.8328C17.5033 34.461 17.3504 36.1339 17.1974 37.7844Z" fill="white"/>
<path d="M37.2574 30.3346C37.8474 28.7733 38.0659 27.145 37.9348 25.4722C37.9566 26.7212 38.0004 27.9703 37.9785 29.1971C37.9785 29.5763 37.8255 29.9777 37.7381 30.3569C37.607 30.3569 37.4541 30.3569 37.3229 30.3792L37.2574 30.3346Z" fill="white"/>
<path d="M33.6082 34.9072C34.2419 34.3272 34.8537 33.7696 35.4874 33.1897C35.5093 34.2826 34.5696 34.6172 33.9796 35.1971C33.9359 35.2194 33.7393 35.0187 33.6082 34.9072Z" fill="white"/>
<path d="M34.657 12.7137C35.1596 12.2007 35.6841 11.6654 36.1867 11.1523C36.143 12.3122 35.9026 12.5799 34.657 12.7137Z" fill="white"/>
<path d="M20.5407 25.0036C20.497 23.8215 20.4752 22.6393 20.4315 21.4349C20.5189 21.1003 20.6063 20.7657 20.6718 20.4312C20.6281 21.9702 20.5844 23.4869 20.5407 25.0036Z" fill="white"/>
<path d="M36.427 15.6579C36.2959 16.2378 35.3781 16.7509 36.274 17.42C35.4874 17.4869 35.5966 16.907 35.5748 16.4163C35.5311 15.7471 35.9026 15.6133 36.427 15.6579Z" fill="white"/>
<path d="M38.0441 13.5166C37.7163 13.9181 37.4104 14.3419 37.0826 14.7434C37.2793 14.2304 36.9952 13.3382 38.0441 13.5166Z" fill="white"/>
<path d="M35.9463 32.5651C36.2304 32.119 36.5363 31.6729 36.8204 31.2268C36.8641 31.8959 36.6674 32.409 35.9463 32.5651Z" fill="white"/>
<path d="M36.8641 10.2824C37.1481 9.74706 37.4541 9.23405 37.7381 8.69873C37.8256 9.4571 37.6726 10.0593 36.8641 10.2824Z" fill="white"/>
<path d="M47.8337 22.171C47.1126 22.171 46.3915 22.1487 45.6704 22.1487C45.6267 22.1487 45.583 22.1487 45.5611 22.1264C45.5174 22.0817 45.4955 22.0371 45.4737 21.9702C46.2604 22.0371 47.047 22.104 47.8337 22.171Z" fill="white"/>
<path d="M37.7163 8.72126C37.8693 8.09673 38.0004 7.47219 38.1533 6.84766C38.0222 7.47219 38.6341 8.29747 37.7163 8.72126Z" fill="white"/>
<path d="M36.1866 11.1747C36.4052 10.8847 36.6455 10.5947 36.864 10.2825C36.8859 10.7732 36.8859 11.2416 36.1866 11.1747Z" fill="white"/>
<path d="M39.1148 12.6021C38.8307 12.8252 38.5466 13.0482 38.2407 13.2713C38.3281 12.7583 38.5466 12.446 39.1148 12.6021Z" fill="white"/>
<path d="M33.0837 13.8291C33.3678 13.673 33.6737 13.4945 33.9578 13.3384C33.9578 14.0744 33.4334 13.8068 33.0837 13.8291Z" fill="white"/>
<path d="M42.0211 11.2192C41.6278 11.3531 41.2126 11.5092 40.8193 11.643C41.2126 11.4869 41.6059 11.3531 42.0211 11.2192Z" fill="white"/>
<path d="M36.8203 31.2269C36.9733 30.9369 37.1044 30.6247 37.2574 30.3347L37.3229 30.4016C37.3229 30.5578 37.3229 30.6916 37.3229 30.8477C37.1481 30.9593 36.9951 31.0931 36.8203 31.2269Z" fill="white"/>
<path d="M27.9048 10.907C28.1233 10.8624 28.3418 10.8178 28.5604 10.7732C28.2326 10.907 27.9048 11.0409 27.577 11.1747C27.6863 11.0632 27.7955 10.9962 27.9048 10.907Z" fill="white"/>
<path d="M37.0826 14.7434C36.8859 15.0111 36.6674 15.2787 36.4708 15.5464C36.4052 15.0557 36.5363 14.7434 37.0826 14.7434Z" fill="white"/>
<path d="M37.323 30.8251C37.323 30.6689 37.323 30.5351 37.323 30.379C37.4541 30.379 37.6071 30.379 37.7382 30.3567C37.6071 30.5128 37.4541 30.6689 37.323 30.8251Z" fill="white"/>
<path d="M25.1078 47.554C26.113 47.2417 27.1182 46.9741 28.1015 46.5949C28.6696 46.3718 29.063 46.4387 29.4344 46.9071C29.7404 47.4425 30.0463 47.9778 30.3522 48.5131C29.7622 48.58 29.1722 48.6246 28.5822 48.6915C28.1233 48.8477 27.6863 49.0038 27.2274 49.1599H27.2493C27.0526 49.1153 26.8341 49.093 26.6374 49.0484C26.5937 49.1153 26.5282 49.1376 26.4626 49.1599C26.3533 49.2938 26.2222 49.4276 26.113 49.5614C26.0256 49.6729 25.96 49.8068 25.8726 49.9183C25.7196 50.0744 25.5448 50.186 25.3919 50.3198C25.3263 50.0967 25.1952 49.8737 25.1733 49.6506C25.1296 48.9369 25.1296 48.2454 25.1078 47.554Z" fill="white"/>
<path d="M27.2274 49.1376C27.6863 48.9815 28.1233 48.8253 28.5822 48.6692C28.0578 49.829 28.0578 49.8291 27.2274 49.1376Z" fill="white"/>
</g>
<defs>
<clipPath id="clip0_43_25">
<rect width="59" height="54" fill="white"/>
</clipPath>
</defs>
</svg>

<svg width="59" height="54" fill="none" xmlns="http://www.w3.org/2000/svg"><g clip-path="url(#a)" fill="#fff"><path d="m2.294 52.327-.59.134c-.153 0-.284.022-.437.022a.197.197 0 0 0-.153-.067c.132-.29.24-.58.372-.87.284-.513.546-1.048.83-1.56a.365.365 0 0 0 .066-.202c.153-.111.284-.223.437-.312l4.785 1.205c.088.959.153 1.918.24 2.877-.13.134-.261.29-.414.424-.765-.647-1.486-1.495-2.623-.58-.087.067-.546-.156-.611-.313-.35-1.048-.984-1.248-1.902-.758ZM1.704 47.108c-.021-.09-.065-.156-.087-.245-.044-.068-.087-.134-.131-.224 0-.067-.022-.156-.066-.2C.94 44.565.48 42.69 0 40.818a.266.266 0 0 0 .11-.112c.021-1.249.021-2.476.043-3.725 0-.267-.022-.557-.022-.825.328-1.093.656-2.208.983-3.301.044-.09.088-.178.153-.268.044-.067.11-.134.153-.2.263-.447.525-.893.787-1.316a115.95 115.95 0 0 0 2.535-2.097c.087-.045.153-.111.24-.156a.348.348 0 0 0 .197-.067.9.9 0 0 0 .24-.156c.284-.09.568-.179.83-.268.241-.045.481-.111.722-.156.48-.022.983-.045 1.464-.09.175-.133.328-.267.502-.4.219-.447.416-.893.634-1.317.11-.223.219-.446.306-.646.175-.246.371-.447.524-.714 2.448-4.127 5.682-7.495 9.637-10.127 2.338-1.561 4.786-2.944 7.517-3.725l.983-.401c.197-1.182.416-2.387.612-3.569.11-.334.219-.669.306-1.004.94-1.918 2.382-3.39 4.152-4.55.131-.089.262-.156.415-.245a.348.348 0 0 0 .197-.067c.218-.112.459-.245.677-.357.525-.2 1.027-.401 1.552-.602C37.17.245 37.869.112 38.59 0c.131.09.284.178.416.29.021.067.065.156.087.223.065.09.11.156.175.245.743 2.967 1.355 5.911.175 8.922-.022.045.196.246.284.246.633-.156 1.245-.335 1.879-.513l3.103-.134c2.272.29 4.195 1.45 6.097 2.632.306.223.611.446.896.669l.458.401c-.043.513.088 1.183-.174 1.517-1.224 1.628-2.579 3.19-3.89 4.751-.24.268-.503.513-.765.758.328.09.656.223.983.268 2.513.357 4.568 1.54 6.36 3.346 1.529 1.561 2.447 3.457 3.277 5.442.044.134.087.29.131.424.262 1.048.525 2.074.787 3.123.022.133.044.29.065.423.11.96-.371 1.45-1.245 1.629-1.595.334-3.169.669-4.764 1.003-.786-.022-1.551-.022-2.338-.044-2.731-.357-5.244-1.25-7.408-3.056-.328-.312-.655-.647-.983-.96l-.044-.066-2.12-3.435c-.546 1.383-1.136 2.9-1.726 4.439-.065.089-.109.156-.174.245-1.465 1.561-2.95 3.1-4.415 4.662h-.371c-.503-.469-1.114-.87-1.486-1.428-1.093-1.628-2.098-3.345-3.125-5.018-.022-.067-.022-.156-.043-.223a2.048 2.048 0 0 0-.154-.313c-.371-1.717-.611-3.434-.218-5.174.022-.134 0-.268 0-.402-.131.045-.284.09-.393.156-1.967 1.272-4.152 1.919-6.425 2.41-1.092-.491-.83-1.584-1.027-2.477.044-1.516.088-3.033.153-4.55.153-.758.328-1.539.48-2.297.372-.602.722-1.205 1.093-1.807a7.02 7.02 0 0 0 .263-.424c.022-.044.043-.089.065-.156l-.13.067c-.132.09-.263.156-.416.245-.437.313-.874.603-1.333.915-.48.335-.94.67-1.42.981-.656.402-.94.915-.787 1.74.284 1.383.503 2.81.743 4.194a365.215 365.215 0 0 1 1.88 4.282c.261.602.458 1.271 1.354 1.07 2.163-.512 3.868.402 5.376 1.83 1.354 1.606 2.076 3.546 2.666 5.553l.065.67c.044.223.11.468.153.691.175 2.476-.284 4.818-1.333 7.048-1.377 1.205-3.147 1.406-4.786 1.919-3.758-1.896-6.337-4.818-7.495-8.99.022-.066.044-.133.066-.178.153-1.65.306-3.3.437-4.974.568-.691 1.114-1.427 1.726-2.096.306-.313.568-.513.262-1.004-1.617-2.61-2.6-5.465-3.037-8.52-.11-.692-.306-.513-.612-.179-1.945 2.03-3.496 4.372-4.807 6.87-.066.134.109.625.262.67 2.6.87 4.043 2.765 4.742 5.397.043.111.087.2.13.312-.02.045-.02.09.023.134.022 1.182.022 2.387.044 3.569-.503 3.658-2.033 6.803-4.415 9.546-1.158.826-2.316 1.673-3.474 2.498-.437-.022-.874.023-1.29-.066-1.092-.246-2.184-.603-3.277-.803-.765-.134-1.333-.491-1.726-1.16-.022-.067-.066-.156-.088-.223-.043-.067-.109-.157-.153-.223a.365.365 0 0 0-.065-.201c0-.09-.066-.156-.11-.223ZM34.22 13.16h-.022c.153-.134.306-.29.459-.424 1.246-.156 1.486-.401 1.53-1.561.699.089.699-.38.677-.893.809-.223.962-.825.874-1.583h-.022c.918-.424.284-1.25.437-1.874-.13-1.249-.284-2.498-.415-3.747-.087-.78-.437-.848-1.114-.602-4.59 1.65-6.468 5.04-5.463 9.948.306 1.45.459 1.583 1.9 1.383.372-.045.897.223.875-.491l.022.045c.109-.045.196-.134.262-.201Zm5.55-1.026c-.218.156-.437.312-.633.468l-.022-.067.022.067c-.569-.134-.787.156-.874.67v-.023l-.219.223.022.045c-1.049-.201-.765.713-.962 1.226-.546-.022-.677.313-.611.803 0 .045 0 .09-.044.112-.525-.045-.896.112-.874.758.022.491-.088 1.071.7 1.004.698.402 1.376.825 2.097 1.16 2.862 1.36 5.66 1.405 8.194-.714 1.137-.959 2.032-2.208 3.038-3.323.437-.491.284-.803-.219-1.138-2.25-1.472-4.61-2.542-7.364-2.208-.393.134-.808.29-1.202.424-.043.044-.087.044-.13.044-.329.157-.635.313-.919.469 0 0-.022 0 0 0Zm-2.447 18.691.437-.446c.087-.379.218-.78.24-1.16.022-1.249-.022-2.498-.043-3.725l.021.023a1.508 1.508 0 0 0-.152-.246c-.46-1.918-1.443-3.546-2.645-5.063-.393-.49-.742-.58-1.114-.089-1.07 1.383-2.316 2.677-3.125 4.216-.546 1.07-.699 2.498-.634 3.747.132 2.721 1.618 4.84 3.322 6.847.131.112.328.313.35.29.612-.58 1.551-.914 1.507-2.007l.022-.022c.153-.201.306-.424.481-.625h-.022c.7-.178.918-.67.874-1.338h-.022c.175-.134.328-.268.503-.402Zm10.51-8.654a75.74 75.74 0 0 1-2.337-.223c.021.045.043.111.087.156.022.022.066.022.11.022-1.028.223-2.077.38-3.082.67-1.092.312-1.508.981-1.29 2.096.503 2.543 1.596 4.773 3.672 6.38 3.43 2.654 7.255 2.654 11.232 1.74.612-.135.612-.536.502-1.005-1.223-4.929-3.605-8.765-8.893-9.836Zm-25.37.558c0 .49.023.959 0 1.45-.043.802.328 1.048.984.736 1.464-.714 3.016-1.316 4.327-2.253 1.398-1.004 2.403-2.454 2.862-4.216.59-2.342-1.136-4.126-3.387-3.457-.765.223-1.53.691-2.141 1.227-1.967 1.695-2.775 3.925-2.644 6.513Z"/><path d="M17.197 37.784c-.087-1.137-.174-2.297-.262-3.434.24-.514.48-1.026.7-1.517a414.833 414.833 0 0 1-.438 4.951ZM37.257 30.335c.59-1.562.809-3.19.678-4.863.022 1.25.065 2.498.043 3.725 0 .38-.153.78-.24 1.16-.131 0-.284 0-.415.022l-.066-.044ZM33.608 34.907l1.88-1.717c.021 1.093-.918 1.427-1.508 2.007-.044.022-.24-.178-.372-.29ZM34.657 12.714l1.53-1.562c-.044 1.16-.284 1.428-1.53 1.562ZM20.54 25.004c-.043-1.183-.065-2.365-.108-3.57.087-.334.174-.668.24-1.003l-.131 4.573ZM36.427 15.658c-.131.58-1.049 1.093-.153 1.762-.787.067-.677-.513-.7-1.004-.043-.669.329-.803.853-.758ZM38.044 13.517c-.328.401-.634.825-.961 1.226.196-.513-.088-1.405.961-1.226ZM35.946 32.565c.284-.446.59-.892.874-1.338.044.669-.153 1.182-.874 1.338ZM36.864 10.282c.284-.535.59-1.048.874-1.583.088.758-.065 1.36-.874 1.583ZM47.834 22.171c-.721 0-1.443-.022-2.164-.022-.043 0-.087 0-.109-.023a.362.362 0 0 1-.087-.156l2.36.201Z"/><path d="M37.716 8.721c.153-.624.284-1.249.437-1.873-.13.624.481 1.45-.437 1.873ZM36.187 11.175c.218-.29.459-.58.677-.893.022.491.022.96-.677.893ZM39.115 12.602c-.284.223-.568.446-.874.67.087-.514.306-.826.874-.67ZM33.084 13.83c.284-.157.59-.335.874-.492 0 .736-.525.469-.874.491ZM42.021 11.22c-.393.133-.808.29-1.202.423.394-.156.787-.29 1.202-.424ZM36.82 31.227c.153-.29.284-.602.437-.892l.066.067v.446c-.175.111-.328.245-.503.379ZM27.905 10.907l.655-.134-.983.402c.11-.112.218-.179.328-.268ZM37.083 14.743c-.197.268-.416.536-.612.803-.066-.49.065-.803.612-.803ZM37.323 30.825v-.446c.131 0 .284 0 .415-.022-.13.156-.284.312-.415.468ZM25.108 47.554c1.005-.312 2.01-.58 2.994-.96.568-.222.961-.155 1.332.313l.918 1.606c-.59.067-1.18.112-1.77.178-.459.157-.896.313-1.355.469h.022c-.196-.045-.415-.067-.612-.112-.043.067-.109.09-.174.112-.11.134-.24.268-.35.401-.087.112-.153.246-.24.357-.153.156-.328.268-.481.402-.066-.223-.197-.446-.219-.67-.043-.713-.043-1.405-.065-2.096Z"/><path d="M27.227 49.138c.46-.157.896-.313 1.355-.469-.524 1.16-.524 1.16-1.355.469Z"/></g><defs><clipPath id="a"><path fill="#fff" d="M0 0h59v54H0z"/></clipPath></defs></svg>
